packages/gestalt-icons-android/vr-theme/ic_vr_home-fill_gestalt.svg

<svg width="24" height="24" viewBox="0 0 24 24" fill="none" xmlns="http://www.w3.org/2000/svg">
<path fill-rule="evenodd" clip-rule="evenodd" d="M9.58823 0.916955C10.2527 0.326277 11.1109 0 12 0C12.8891 0 13.7473 0.326277 14.4118 0.916955L21.6575 7.35756C22.5114 8.11663 23 9.20465 23 10.3472V18.8149C23 20.8484 21.4652 22.581 19.3977 22.7289C17.5517 22.861 14.9162 23 12 23C9.08379 23 6.44834 22.861 4.6023 22.7289C2.53481 22.581 1 20.8484 1 18.8149V10.3472C1 9.20465 1.48859 8.11663 2.34254 7.35756L9.58823 0.916955ZM12.0004 15.9986C10.8494 15.9986 9.7919 15.611 8.94721 14.9586L7.72467 16.5414C8.90717 17.4548 10.3917 17.9986 12.0004 17.9986C13.6091 17.9986 15.0935 17.4548 16.2761 16.5414L15.0535 14.9586C14.2088 15.611 13.1513 15.9986 12.0004 15.9986Z" fill="black"/>
</svg>

<svg xmlns="http://www.w3.org/2000/svg" width="24" height="24"><path d="M9.59.92a3.63 3.63 0 0 1 4.82 0l7.25 6.44A4 4 0 0 1 23 10.35v8.46a3.9 3.9 0 0 1-3.6 3.92 106 106 0 0 1-14.8 0A3.9 3.9 0 0 1 1 18.8v-8.46a4 4 0 0 1 1.34-3zM12 16a5 5 0 0 1-3.05-1.04l-1.23 1.58a7 7 0 0 0 8.56 0l-1.23-1.58A5 5 0 0 1 12 16"/></svg>
